X:1
T: Psalm 104
T:V 4
L:1/4
M:10/4
I:linebreak $
K:C
V:1 treble nm="Pipe Organ" snm="Org."
V:1
 c B A B G A B c2 z |$ c c G G E G F E2 z |$ E A A G B c A G2 z |$ c B A G F E D C3 |] %4
w: Die aar- de’t Hy deur sy be- vel|op fon- da- men- te vas- ge- stel.|Die wa- ters in hul storm- ge- woel,|oor hoog- ste ber- ge heen- ge- spoel,|

